X: 305790
M: 6/8
L: 1/8
K: C
e3 fAB | c3 Gcd | e3 fAB | c3 cBc |\
(B/c/) |\
d3 ed^c | d3 Bcd | d3 def | g3 gfg |\
e3 efg | d2B dcA | G3 "^D.C."z2 |]


